public/icons/xwhite.svg

<svg xmlns:xlink="http://www.w3.org/1999/xlink" xmlns="http://www.w3.org/2000/svg" viewBox="0 0 24 24" height="24" width="24" preserveAspectRatio="xMidYMid meet" class="" fill="currentColor" enable-background="new 0 0 24 24"><title>x</title><path d="M19.6004 17.2L14.3004 11.9L19.6004 6.60005L17.8004 4.80005L12.5004 10.2L7.20039 4.90005L5.40039 6.60005L10.7004 11.9L5.40039 17.2L7.20039 19L12.5004 13.7L17.8004 19L19.6004 17.2Z" fill="#fff"></path></svg>

<svg xmlns="http://www.w3.org/2000/svg" height="24" width="24" preserveAspectRatio="xMidYMid meet" fill="currentColor" xmlns:v="https://vecta.io/nano"><path d="M19.6 17.2l-5.3-5.3 5.3-5.3-1.8-1.8-5.3 5.4-5.3-5.3-1.8 1.7 5.3 5.3-5.3 5.3L7.2 19l5.3-5.3 5.3 5.3 1.8-1.8z" fill="#fff"/></svg>
